X:109
T: ACH, ACH, ICH ARMES KLOSTERFRAEULEIN!
N: Z0109
O: Europa, Mitteleuropa, Deutschland
R: Sagen - Lied, Romanze
M: 4/4
L: 1/8
K: G
B2 | d3cBAGA | B2e2d2z
d | dgfed2^cc | d4z2
d2 | d2cBd2cB | e4d2
c2 | B3BA2dc | B4z2
d2 | d2cBd2cB | g4f2
e2 | d2cBAedc | B4z2

